X:1
T:Campania, 76.76 D
T:Campania, 76.76 D
T:E. L. Pease, 1888
T:Public Domain Courtesy of the Cyber Hymnal™
C:E. L. Pease, 1888
Z:Public Domain
Z:Courtesy of the Cyber Hymnal™
%%score ( 1 2 ) ( 3 4 )
L:1/8
Q:1/4=110
M:4/4
K:A
V:1 treble 
V:2 treble 
V:3 bass 
V:4 bass 
V:1
 E2 | A3 A E2 c2 | B4 A2 [Ac]2 | [Ae]3 [Ec] [FA]3 [EB] | [Ac]4 z2 [^Ec]2 | [Ac]3 [Fc] [FA]2 [Ac]2 | %6
 ([EB]3 [CA]) [EG]2 [Ac]2 | [GB]3 [GB] [Ac]2 [A^d]2 | [Ge]4 z2 E2 | A3 A E2 c2 | B4 A2 [Fc]2 | %11
 [Fc]3 [Fc] [FB]2 [^Ec]2 | d6 [EB]2 | [EB]3 [EB] [Ac]2 [Gd]2 | ([Ac]2 [^EB]2) [FA]2 [Ed]2 | %15
 [Ec]3 [Fd] F2 [EG]2 | [EA]6 |] %17
V:2
 E2 | A3 A E2 c2 | B4 A2 x2 | x8 | x8 | x8 | x8 | x8 | x6 E2 | A3 A E2 c2 | B4 A2 x2 | x8 | %12
 (A4 G2) x2 | x8 | x8 | x4 F2 x2 | x6 |] %17
V:3
 E,2 | A,3 A, E,2 C2 | B,4 A,2 [A,E]2 | [E,C]3 [E,A,] [F,C]3 [E,D] | [A,E]4 z2 [G,B,]2 | %5
 [F,A,]3 [F,A,] [F,C]2 [A,E]2 | ([E,G,]3 [C,A,]) [B,,B,]2 [A,,A,]2 | %7
 [B,,G,]3 [B,,G,] [B,,A,]2 [B,,B,]2 | [E,B,]4 z2 E,2 | A,3 A, E,2 C2 | B,4 A,2 [F,^A,]2 | %11
 [F,^A,]3 [F,A,] [D,B,]2 [C,B,]2 | (F,4 B,2) [D,G,]2 | [D,G,]3 [D,G,] [C,E]2 [B,,D]2 | %14
 ([E,E]2 [^E,D]2) [F,C]2 [B,,G,]2 | [C,A,]3 [D,B,] [D,B,]2 [E,B,]2 | [A,,A,C]6 |] %17
V:4
 E,2 | A,3 A, E,2 C2 | B,4 A,2 x2 | x8 | x8 | x8 | x8 | x8 | x6 E,2 | A,3 A, E,2 C2 | B,4 ^A,2 x2 | %11
 x8 | B,,6 x2 | x8 | x8 | x8 | x6 |] %17

